X:1
T:Olaf Trygvason
T:Olaf Trygvason
T:fra "Kvartetter for blandet kor"
T:Christian Haslerud
T:Bj. Bjørnson
C:Christian Haslerud
Z:Bj. Bjørnson
%%score [ 1 2 3 4 ]
L:1/8
Q:1/4=60
M:4/4
K:Eb
V:1 treble nm="Soprano"
V:2 treble nm="Alto"
V:3 treble-8 nm="Tenor"
V:4 bass nm="Bass"
V:1
"^Kraftigt"!ff! E3 D C2 E3/2 F/ | G2 c2 =B2 z2 | c3 d e2 d3/2 c/ | =B2 c2 G2 z2 | %4
w: Bre- de Seil o- ver|Nord- sjø gaar|Høit i Skand- sen i|Morg- nen staar|
!mf! B3 A G2 F3/2 E/ | G4 F2 z2 |!<(! G2 c2 B2!<)! A3/2 G/ |!>(! F4 E2!>)! z2 | z8 | z8 | %10
w: Er- ling Skjalg- son fra|So- le|Er- ling Skjalg- son fra|So- le|||
!p! G3/2 F/!<(! E3/2 D/ C2!<)! c2 |!>(! (B2 A2)!>)! G2 z2 |!p! C D E F G4- | G6 G2 | E4 D4 | %15
w: Spei- der o- ver Hav mot|Dan- * mark|Kom- mer ik- ke O-|* laf|Tryg- va-|
 C4 z4 |] %16
w: son.|
V:2
!ff! C3 =B, C2 C3/2 C/ | C2 E2 D2 z2 | G3 F E2 F3/2 E/ | G2 G2 G2 z2 |!mf! E3 D E2 D3/2 E/ | %5
w: Bre- de Seil o- ver|Nord- sjø gaar|Høit i Skand- sen i|Morg- nen staar|Er- ling Skjalg- son fra|
 E4 D2 z2 |!<(! E2 E2 E2!<)! E3/2 E/ |!>(! D4 B,2!>)! z2 | z8 | z8 | %10
w: So- le|Er- ling Skjalg- son fra|So- le|||
!p! E3/2 D/!<(! C3/2 =B,/ C2!<)! E2 |!>(! (=E2 F2)!>)! D2 z2 | z4!p! C D E F | E6 E2 | C4 =B,4 | %15
w: Spei- der o- ver Hav mot|Dan- * mark|Kom- mer ik- ke|O- laf|Tryg- va-|
 C4 z4 |] %16
w: son.|
V:3
!ff! G3 G G2 G3/2 G/ | G2 G2 G2 z2 | G3 =B c2 B3/2 c/ | d2 e2 =B2 z2 |!mf! _B3 B B2 A3/2 G/ | %5
w: Bre- de Seil o- ver|Nord- sjø gaar|Høit i Skand- sen i|Morg- nen staar|Er- ling Skjalg- son fra|
 B4 B2 z2 |!<(! B2 A2 B2!<)! c3/2 c/ |!>(! A4 G2!>)! z2 | z8 | z8 | %10
w: So- le|Er- ling Skjalg- son fra|So- le|||
!p! G3/2 G/!<(! G3/2 G/ G2!<)! G2 |!>(! c4!>)! =B2 z2 | z8 |!p! C D E F G2 c2 | G4 F4 | E4 z4 |] %16
w: Spei- der o- ver Hav mot|Dan- mark||Kom- mer ik- ke O- laf|Tryg- va-|son.|
V:4
!ff! C,3 G, E,2 C,3/2 D,/ | E,2 C,2 G,,2 z2 | E,3 D, C,2 G,3/2 A,/ | G,2 G,2 G,2 z2 | %4
w: Bre- de Seil o- ver|Nord- sjø gaar|Høit i Skand- sen i|Morg- nen staar|
!mf! G,3 F, E,2 B,,3/2 C,/ | B,,4 B,,2 z2 |!<(! E,2 A,,2 G,,2!<)! A,,3/2 A,,/ | %7
w: Er- ling Skjalg- son fra|So- le|Er- ling Skjalg- son fra|
!>(! B,,4 E,2!>)! z2 |!f! G,3 G, G,2 C,2 | A,3 A, G,2 G,2 | %10
w: So- le|Spei- der o- ver|Hav mot Dan- mark|
!p! C,3/2 C,/!<(! C,3/2 F,/ E,2!<)! C,2 |!>(! (C,2 F,2)!>)! G,2 z2 | z8 | z4!p! C, D, E, F, | %14
w: Spei- der o- ver Hav mot|Dan- * mark||Kom- mer ik- ke|
 G,4 G,,4 | C,4 z4 |] %16
w: Tryg- va-|son.|

